X: 657
T: Adulterated American
R: reel
M: 4/4
K: Gmajor
~G3E DE(G2|G)ABd edBA|~G3E DE(G2|G)GAB A4|
~G3E DE(G2|G)ABd edBd|~g3e dB (A2|A)BGE GDED:|
|:~g3e dB (d2|d)eBA BA (3Bcd|~g3e dB (d2|d)dgb g~a3|
~g3e dB (d2|d)eBA BAGE|B3A GE (D2|D)EGA G4:|

